X: 1
T: Paddy Fahy's
M: 4/4
L: 1/8
R: reel
K: Gmaj
_B2dB ~c2dc|BG~G2 DE=FD|GABG c2dc|BGAF DGGA|
(3Bcd Bd ~c3d|BG~G2 DE=FD|GABG ccdc|1 BGAF G3A:|2 BGAF G2 (3ABc|| 
|:dggf dgBg|dgag fdcB|ce=f2 cfAf|c=fag fdcA| 
dg~g2 dgBg|dgag fdef|g2ag fage|1 fdcA G2Bc:|2 fdcA G3A||
